X:146
T:One For The Pot Breakdown
R:reel
C:Bruce Osborne - Dec.2002
Z:abc by bosborne@kos.net
M:2/4
L:1/8
K:F
A/c/|ff/e/ f/c/A/c/|f/e/f/g/ f/c/A/c/|g/f/g/a/ g/e/c/e/|f/e/f/g/ aA/c/|\
ff/e/ f/c/A/c/|f/e/f/g/ f/c/A/c/|g/f/g/a/ g/e/c/e/|f/e/f/g/ f:|
|:C/D/|FF/E/ F/C/F/A/|cc/d/ c/A/F/A/|GG/A/ B/G/E/G/|d/c/c/B/ AC/D/|\
FF/E/ F/C/F/A/|cc/d/ c/A/F/A/|GG/A/ B/G/E/G/|F/E/A/G/ F:|
